modules/feathericon/icons/desktop.svg

<?xml version="1.0" encoding="UTF-8"?>
<svg width="14px" height="12px" viewBox="0 0 14 12" version="1.1" xmlns="http://www.w3.org/2000/svg" xmlns:xlink="http://www.w3.org/1999/xlink">
    <!-- Generator: sketchtool 48.1 (47250) - http://www.bohemiancoding.com/sketch -->
    <title>desktop</title>
    <desc>Created with sketchtool.</desc>
    <defs></defs>
    <g id="devices" stroke="none" stroke-width="1" fill="none" fill-rule="evenodd">
        <g id="desktop" fill="#000000">
            <path d="M5.99809103,11 L5.99809105,10.0009766 L1,10.0009766 C1,10.0009766 5.32907052e-15,10 0,9 C0,9 3.55271368e-15,0.953812795 3.55271368e-15,1 C3.55271368e-15,5.86113824e-10 1,5.86000137e-10 1,5.86000137e-10 L13,0 C13,0 14,5.86000137e-10 14,1 C14,1 14,9 14,9 C14,10.0009766 13,10.0009766 13,10.0009766 L8,10.0009766 L8,11 L10,11 C10,11 10,12 9,12 L5,12 C4,12 4,11 4,11 L5.99809103,11 Z M1,1 L1,9 L13,9 L13,1 L1,1 Z" id="shape"></path>
        </g>
    </g>
</svg>

<svg width="14" height="12" xmlns="http://www.w3.org/2000/svg"><path d="M5.998 11v-.999H1S0 10 0 9V1c0-1 1-1 1-1h12s1 0 1 1v8c0 1.001-1 1.001-1 1.001H8V11h2s0 1-1 1H5c-1 0-1-1-1-1h1.998zM1 1v8h12V1H1z" fill="#000" fill-rule="evenodd"/></svg>
